X: 24188
T: Lord Gordon's
R: reel
M: 4/4
K: Cmajor
GCDC G,CEA|G~C3 EGcz|AD~D2 ADcD|ADDB AGEG|
cBce decA|AG^FA G2AB|cABG AEGE|1 DEFG A3c:|2 DEFG ABcd||
|:~e2ce gece|~e2ce g2fe|defg afdB|cBAG ^FGAB|
c2ec decA|AG^FA G2AB|cABG AEGE|DEFG ABcd:|
|:eg~g2 ecgc|eg~g2 ecgc|fa~a2 fdad|fa~a2 fdad|
eged c2Gc|AGEA GAcd|ecdB cAGE|1 DEFG ABcd:|2 DEFG AccA||
|:GccG (3cec ce|GccG (3cec ec|dffe f2fe|d2f2 dfaf|
eged c2Gc|AGEA GAce|gedB cAGE|1 DEFG AccA:|DEFG ABcd|
g3^f gecd|egg^f g2=fe|fade f2de|f2df afde|
f2af egge|edcA GAce|gedB cAGE|1 DEFG ABcd|
egg^f g2cd|egg^f g2=fe|fade f2de|f2df afde|
f2af egge|edcA GAce|gedB cAGE|DEFG A3c|

